!!! OTL: Berkowitz215
!!! Chapter: 1
!!! Section: II
!!! Page: 50
!!! Mode: 
!!! Encoder: DJB
**kern
*staff1
*I"Piano
=1-
*clefG2
*k[b-e-a-]
*c:
*M4/4
4c/
2d/
4e-/
=2
4d/
2e-/
4f/
=3
4g/
8g/L
8f/J
4d/
4c/
=4
4e-/
2d/
4r
=5
4c/
2cc\
4e-/
=6
4a-/
2d/
4f/
=7
4g/
4c/
4d/
4f/
=8
4e-/
4d/
4c/
4r
==
*-
